src/assets/img/Home/icons/bitcoin.svg

<svg width="36" height="36" viewBox="0 0 36 36" fill="none" xmlns="http://www.w3.org/2000/svg">
<g id="Icon">
<path id="Shape" d="M34.5434 21.8821C32.2273 31.1718 22.8178 36.8249 13.527 34.5088C4.24046 32.1927 -1.41316 22.7832 0.903456 13.494C3.21844 4.2032 12.6274 -1.45096 21.9155 0.86511C31.2058 3.18118 36.8589 12.5918 34.5428 21.8821H34.5434Z" fill="#262626"/>
<path id="Shape_2" fill-rule="evenodd" clip-rule="evenodd" d="M22.9458 15.6724C23.1796 14.1071 21.9878 13.2656 20.3582 12.7043L20.8868 10.5839L19.5958 10.2622L19.0811 12.3267C18.7422 12.2422 18.3937 12.1624 18.0474 12.0834L18.5657 10.0053L17.2757 9.68359L16.7467 11.8033C16.4659 11.7393 16.1902 11.6761 15.9225 11.6095L15.924 11.6029L14.144 11.1585L13.8007 12.537C13.8007 12.537 14.7583 12.7565 14.7381 12.7701C15.2608 12.9006 15.3557 13.2465 15.3395 13.5208L14.7374 15.9364C14.7734 15.9456 14.8201 15.9588 14.8715 15.9794L14.7355 15.9456L13.8911 19.3295C13.8271 19.4883 13.665 19.7265 13.2996 19.636C13.3125 19.6548 12.3615 19.4019 12.3615 19.4019L11.7207 20.8797L13.4007 21.2984C13.5904 21.3459 13.7777 21.3948 13.963 21.4431C14.083 21.4745 14.2021 21.5055 14.3205 21.5359L13.7863 23.6809L15.0756 24.0026L15.6049 21.8807C15.9567 21.9763 16.2986 22.0645 16.6331 22.1476L16.106 24.2595L17.3967 24.5812L17.9308 22.4406C20.1317 22.8571 21.7871 22.6891 22.483 20.6988C23.0444 19.096 22.4554 18.1715 21.2975 17.5682C22.1408 17.373 22.776 16.8183 22.9455 15.6724H22.9458ZM19.9964 19.8077C19.63 21.2788 17.3269 20.6701 16.274 20.3918C16.1798 20.3669 16.0955 20.3447 16.0236 20.3268L16.7323 17.4855C16.8203 17.5074 16.9277 17.5315 17.0494 17.5588C18.1386 17.8032 20.3707 18.3041 19.9968 19.8077H19.9964ZM17.2682 16.2404C18.1467 16.4748 20.0616 16.9857 20.3952 15.6493C20.7362 14.2822 18.8742 13.8701 17.9648 13.6689C17.8626 13.6462 17.7724 13.6263 17.6987 13.6079L17.0561 16.1849C17.1169 16.2001 17.1883 16.2191 17.2682 16.2404Z" fill="#CAFF33"/>
</g>
</svg>

<svg xmlns="http://www.w3.org/2000/svg" width="36" height="36" fill="none"><path fill="#262626" d="M34.543 21.882c-2.316 9.29-11.725 14.943-21.016 12.627C4.24 32.193-1.413 22.783.903 13.494 3.218 4.204 12.627-1.451 21.916.865c9.29 2.316 14.943 11.727 12.627 21.017Z"/><path fill="#CAFF33" fill-rule="evenodd" d="M22.946 15.672c.234-1.565-.958-2.406-2.588-2.968l.529-2.12-1.291-.322-.515 2.065a53.328 53.328 0 0 0-1.034-.244l.519-2.078-1.29-.321-.53 2.12a43.21 43.21 0 0 1-.823-.194l.001-.007-1.78-.444-.343 1.378s.957.22.937.233c.523.13.618.476.601.75l-.602 2.416c.036.01.083.023.134.043l-.136-.033-.844 3.383c-.064.16-.226.398-.591.307.012.019-.939-.234-.939-.234l-.64 1.478 1.68.418.562.145.357.093-.534 2.145 1.29.322.529-2.122c.352.095.694.183 1.028.267l-.527 2.111 1.29.322.535-2.14c2.2.416 3.856.248 4.552-1.742.561-1.603-.028-2.527-1.186-3.13.844-.196 1.479-.75 1.648-1.897Zm-2.95 4.136c-.366 1.47-2.67.862-3.722.584a18.941 18.941 0 0 0-.25-.065l.708-2.842c.088.022.196.047.317.074 1.09.244 3.322.745 2.948 2.249Zm-2.728-3.568c.879.235 2.794.746 3.127-.59.341-1.368-1.52-1.78-2.43-1.981-.102-.023-.193-.043-.266-.061l-.643 2.577.212.055Z" clip-rule="evenodd"/></svg>
